!!!OTL: 569. Die Freudenlose.
!!!ODT: 1839
!!!ARE: Europa, Mitteleuropa, Deutschland, Helgoland
!!!SCT: E0569B
!!!YEM: Copyright 1995, estate of Helmut Schaffrath.
**kern
*ICvox
*M3/4
*k[b-e-]
*B-:
!LO:TX:a:t=Von Helgoland. 1839.
{4f
=1
8.b-
16a
4b-
4cc
=2
8dd
8ff
8ee-}
{8dd
8cc
8b-
=3
4cc
4ee-
8dd
8cc
=4
4b-
8r}
{16ffL
16ee-J
8dd
8dd
=5
(8.ddL
16ee-
8ffJ)
16ee-L
16ddJ
8cc
8cc
=6
(8.ccL
16dd
8ee-J)}
{8ee-
8dd
8cc
=7
4b-
4dd
8cc
8cc
=8
4b-
8r}
{16ffL
16ee-J
8dd
8dd
=9
(8.ddL
16ee-
8ffJ)
16ee-L
16ddJ
8cc
8cc
=10
(8.ccL)
16dd
8ee-J)}
{8ee-
8dd
8cc
=11
4b-
4dd
8cc
8cc
=12
4b-
4r}
==
!!!AGN: Liebes - Lied, Trennung
!!!ONB: ESAC (Essen Associative Code) Database: ERK1
!!!AMT: simple triple
!!!AIN: vox
!!!EED: Helmut Schaffrath
!!!EEV: 1.0
!!!GTL: Liebeslieder [Neuere (aus dem 18. bis 19. Jahrh.) - Liebeslust]
!!!URL-scan: https://rosdok.uni-rostock.de/mcrviewer/recordIdentifier/rosdok_ppn745177662/iview2/phys_0399.iview2?x=-128.77276441889308&y=1266.0572679350153&scale=0.5870222003877485&rotation=0&layout=singlePageLayout
!!!ENC: Anna Maria Matuszewska
!!!EEV: 2024/11/12
*-
